assets/icons/time.svg

<svg class="ucla-icon time" width="24" height="24" viewBox="0 0 24 24" aria-labelledby="icon-time" role="img"><title id="icon-time">Icon Time</title><g fill="none" fill-rule="evenodd"><path d="M11.99 2C17.52 2 22 6.48 22 12s-4.48 10-10.01 10C6.47 22 2 17.52 2 12S6.47 2 11.99 2zM12 20c4.42 0 8-3.58 8-8s-3.58-8-8-8-8 3.58-8 8 3.58 8 8 8zm.5-13v5.25l4.5 2.67-.75 1.23L11 13V7h1.5z" id="Combined-Shape" fill="#000"/></g></svg>

<?xml version="1.0" encoding="UTF-8"?>
<svg width="24px" height="24px" viewBox="0 0 24 24" version="1.1" xmlns="http://www.w3.org/2000/svg" xmlns:xlink="http://www.w3.org/1999/xlink">
    <!-- Generator: Sketch 53.2 (72643) - https://sketchapp.com -->
    <title>Icon/Time</title>
    <desc>Created with Sketch.</desc>
    <g id="Icon/Time" stroke="none" stroke-width="1" fill="none" fill-rule="evenodd">
        <path d="M11.99,2 C17.52,2 22,6.48 22,12 C22,17.52 17.52,22 11.99,22 C6.47,22 2,17.52 2,12 C2,6.48 6.47,2 11.99,2 Z M12,20 C16.42,20 20,16.42 20,12 C20,7.58 16.42,4 12,4 C7.58,4 4,7.58 4,12 C4,16.42 7.58,20 12,20 Z M12.5,7 L12.5,12.25 L17,14.92 L16.25,16.15 L11,13 L11,7 L12.5,7 Z" id="Combined-Shape" fill="#000000"></path>
    </g>
</svg>
